X:1
T:Title
%%score { ( 1 4 ) | ( 2 3 ) }
L:1/8
Q:1/4=100
M:4/4
K:Eb
V:1 treble nm="Grand Piano"
V:4 treble 
V:2 bass 
V:3 bass 
V:1
 [GB]3 [Ac] [GB]2 G2 | G3 E [EG]2 [DF]2 | [Dc]3 [Dc] B2 G2 | F2 E2 [DF]4 | B3 B e2 d2 | %5
w: A.~B.~Simpson * * *|||||
 [Ec]3 [Ee] [Ec] [EB]3 | [Ee]3 [B,EG] [CEA]2 .[B,DF]2 | [G,E]6 z2 | [EGB]3 [CFA] [B,EG]2 [B,DF]2 | %9
w: ||||
 [B,EG]2 [EGB]6 | c3 B A2 G2 | F6 z2 | [Ge]3 [Gd] [Ac]2 [GB]2 |[M:11/8] c2 e-e-e-e-e-e- e3 | %14
w: |||||
[M:4/4] z4 [DF]4 | E6 z2 |] %16
w: ||
V:2
 [E,E]3 [E,E] [E,E]2 [E,B,E]2 | [E,B,E]3 [C,=A,] [B,,B,]2 [B,,B,]2 | %2
 [B,,A,]3 [B,,A,] [E,G,E]2 [E,B,E]2 | [D,B,]2 [C,=A,C]2 [B,,B,]4 | %4
 [B,DF]3 [A,DF][K:bass] [G,B,E]2 [E,G,E]2 | [A,,A,]3 [A,,C] [A,,A,] [E,G,]3 | %6
 [B,,G,]3 B,, B,,2 z A, | E,6 z2 | E,3 E, E,2 B,,2 | E,2 E,6 | [A,E]3 [G,B,E] [F,B,D]2 [E,B,E]2 | %11
 [B,D]6 z2 | [E,B,]3 [E,B,] [E,E]2 [E,E]2 | %13
[M:11/8][K:treble] [A,EA]2 [A,CA]-[A,CA]-[A,CA]-[A,CA]-[A,CA]-[A,CA]- [A,CA]3 | %14
[M:4/4][K:bass] [B,E]4 B,2 z2 | [E,G,]6 z2 |] %16
V:3
 x8 | x8 | x8 | x8 | x4[K:bass] x4 | x8 | z4 z2 B,,2 | x8 | x8 | x8 | x8 | x8 | x8 | %13
[M:11/8][K:treble] x11 |[M:4/4][K:bass] z4 B,,4 | x8 |] %16
V:4
 x8 | x8 | x8 | x8 | x8 | x8 | x8 | x8 | x8 | x8 | x8 | x8 | x8 |[M:11/8] x11 |[M:4/4] G4 z2 A,2 | %15
 x8 |] %16

